X: 112
%
U:~=!turn!
T: Lamberton Races
T: Col. Renton's Favourite
C:Nath. Gow
O:Scotland
B:Keith Norman MacDonald : "The Skye collection of the best reels & strathspeys extant" : 1887
Z:Ralph Palmer
R:Reel
M:C
L:1/8
K:F
F | (FA).c.f afTge | .f(dcA) BGGA | (FA).c.f afTge | f(dTc)>B AFFF | (FA).c.f afTge |
.f(dcA) BGGA | (FA).c.f afTge | f(dTc)>B AFF || B | AcFc AcFc | TB>c (d/c/).B/.A/ BGGA |
(FA)cf afTge | f(dTc)>B AFFB | AcFc AcFc | TB>c (d/c/).B/.A/ BGGA | (FA)cf afTge | f(dTc)>B AFF |]


